X:759
T:Flowers of Red Hill, The
T:Clogher Reel
R:reel
D:De Danann: Selected Jigs and Reels
D:Bothy Band: 1975
Z:hn-reel-759
M:C|
K:Ador
eA~A2 gAfA|eA~A2 eAdA|eA~A2 eAfA|gedB GABd:|
ea~a2 baag|eaag egdg|ea~a2 bgag|edef gedg|
ea~a2 baag|eaaf g3a|bg~g2 aged|eaag edBd||
|:eA~A2 gAfA|eA~A2 eAdA|eA~A2 edea|gedB GABd:|
eaag bgag|eaag egdg|eaag bgag|e2de gdBd|
eaag bgag|edef g3a|bg~g2 aged|eaag edBd||
